!!!OTL: SO VIEL STERN AM HIMMEL STEHEN
!!!ARE: Europa, Mitteleuropa, Deutschland
!!!SCT: Z0076
!!!YEM: Copyright 1995, estate of Helmut Schaffrath.
**kern
*ICvox
*Ivox
*M3/4
*k[f#]
*G:
{8g
8a
=1
4.b
8b
8cc
8a
=2
8ee
8dd
4dd
8b
8dd
=3
4.cc
8a
8dd
8cc
=4
4b
4r}
{8g
8a
=5
4.b
8b
8cc
8a
=6
8ee
8dd
4dd
8b
8dd
=7
4.cc
8a
8dd
8cc
=8
4b
4r}
{8dd
8b
=9
8b
8a
4a
8ee
8cc
=10
8cc
8b
4b
8dd
8b
=11
8b
8a
4a
8ee
8cc
=12
8cc
8b
4b}
{8g
8a
=13
4.b
8g
8cc
8a
=14
4ee
4dd
8b
8dd
=15
4cc
4a
8dd
8cc
=16
2b}
==
!!!AGN: Sagen - Lied, Romanze, Tod
!!!ONB: ESAC (Essen Associative Code) Database: ZUCCAL
!!!AMT: simple triple
!!!AIN: vox
!!!EED: Helmut Schaffrath
!!!EEV: 1.0
*-
